eye-settings-outline.svg

<svg fill="currentColor" viewBox="0 0 24 24"><path d="M12 9a3 3 0 0 1 3 3 3 3 0 0 1-3 3 3 3 0 0 1-3-3 3 3 0 0 1 3-3m0-4.5c4.86 0 9.22 3 11 7.5-2.39 6.08-9.25 9.06-15.33 6.67C4.62 17.47 2.2 15.06 1 12c1.78-4.5 6.14-7.5 11-7.5M3.18 12c2.38 4.87 8.27 6.89 13.14 4.5a9.8 9.8 0 0 0 4.5-4.5c-2.38-4.87-8.27-6.89-13.14-4.5a9.8 9.8 0 0 0-4.5 4.5M9 22H7v2h2zm4 0h-2v2h2zm4 0h-2v2h2z"/></svg>

<svg  viewBox="0 0 24 24" fill="currentColor"><path  d="M12,9A3,3 0 0,1 15,12A3,3 0 0,1 12,15A3,3 0 0,1 9,12A3,3 0 0,1 12,9M12,4.5C16.86,4.5 21.22,7.5 23,12C20.61,18.08 13.75,21.06 7.67,18.67C4.62,17.47 2.2,15.06 1,12C2.78,7.5 7.14,4.5 12,4.5M3.18,12C5.56,16.87 11.45,18.89 16.32,16.5C18.28,15.54 19.86,13.96 20.82,12C18.44,7.13 12.55,5.11 7.68,7.5C5.72,8.46 4.14,10.04 3.18,12M9,22H7V24H9V22M13,22H11V24H13V22M17,22H15V24H17V22Z"/></svg>
